svgs/crunchyroll.svg

<svg width="192" height="192" viewBox="0 0 192 192" fill="none" xmlns="http://www.w3.org/2000/svg">
<path d="M163.649 83.1415C164.507 86.3423 167.797 88.2418 170.997 87.3842C174.198 86.5265 176.098 83.2365 175.24 80.0357L163.649 83.1415ZM151.74 49.7306L156.119 45.629L156.119 45.629L151.74 49.7306ZM51.3429 41.4985L47.6904 36.7384L47.6904 36.7384L51.3429 41.4985ZM22.1606 105.905L28.1477 105.513L22.1606 105.905ZM33.3098 140.605L38.4051 137.437L38.4051 137.437L33.3098 140.605ZM56.5 171.148C59.3697 172.805 63.0393 171.822 64.6961 168.952C66.353 166.082 65.3698 162.413 62.5 160.756L56.5 171.148ZM175.24 80.0357C171.792 67.169 165.225 55.3512 156.119 45.629L147.361 53.8322C155.117 62.114 160.712 72.181 163.649 83.1415L175.24 80.0357ZM156.119 45.629C147.013 35.9069 135.65 28.5804 123.037 24.2987L119.179 35.6618C129.924 39.3093 139.604 45.5503 147.361 53.8322L156.119 45.629ZM123.037 24.2987C110.423 20.0169 96.9481 18.912 83.8055 21.0819L85.7602 32.9216C96.9558 31.0732 108.434 32.0144 119.179 35.6618L123.037 24.2987ZM83.8055 21.0819C70.6629 23.2517 58.2582 28.6294 47.6904 36.7384L54.9955 46.2586C63.9978 39.3509 74.5647 34.77 85.7602 32.9216L83.8055 21.0819ZM47.6904 36.7384C37.1225 44.8474 28.7175 55.4375 23.2201 67.5707L34.1504 72.5232C38.8335 62.1875 45.9932 53.1663 54.9955 46.2586L47.6904 36.7384ZM23.2201 67.5707C17.7226 79.7039 15.3022 93.0056 16.1734 106.298L28.1477 105.513C27.4056 94.19 29.4674 82.8589 34.1504 72.5232L23.2201 67.5707ZM16.1734 106.298C17.0446 119.59 21.1805 132.462 28.2146 143.773L38.4051 137.437C32.413 127.801 28.8899 116.836 28.1477 105.513L16.1734 106.298ZM28.2146 143.773C35.2488 155.085 44.9641 164.488 56.5 171.148L62.5 160.756C52.6731 155.082 44.3971 147.073 38.4051 137.437L28.2146 143.773Z" fill="black"/>
<path d="M154.201 99.4662C156.124 110.259 154.553 121.383 149.717 131.221C144.88 141.059 137.031 149.097 127.31 154.165C117.589 159.234 106.505 161.068 95.6702 159.401C84.8351 157.735 74.8145 152.654 67.0665 144.899C59.3186 137.143 54.2475 127.118 52.5912 116.281C50.9349 105.444 52.7798 94.3619 57.8574 84.6462C62.935 74.9305 70.9805 67.0886 80.823 62.2614C90.6656 57.4343 101.792 55.8739 112.582 57.8072" stroke="black" stroke-width="12" stroke-linecap="round" stroke-linejoin="round"/>
<path d="M154.125 99.3771C148.461 103.988 141.288 106.335 133.993 105.962C126.699 105.588 119.803 102.523 114.639 97.3578C109.474 92.1928 106.41 85.2957 106.038 78.0014C105.667 70.7071 108.014 63.5342 112.626 57.871" stroke="black" stroke-width="12" stroke-linecap="round" stroke-linejoin="round"/>
</svg>

<svg width="192" height="192" viewBox="0 0 192 192" fill="none" xmlns="http://www.w3.org/2000/svg"><path d="M163.649 83.141a6 6 0 0 0 11.591-3.105l-11.591 3.105Zm-11.909-33.41 4.379-4.102-4.379 4.102ZM51.343 41.498l-3.653-4.76 3.653 4.76ZM22.16 105.905l5.987-.392-5.987.392Zm11.149 34.7 5.095-3.168-5.095 3.168Zm23.19 30.543a6 6 0 1 0 6-10.392l-6 10.392Zm118.74-91.112a81.002 81.002 0 0 0-19.121-34.407l-8.758 8.203a69.009 69.009 0 0 1 16.288 29.31l11.591-3.106Zm-19.121-34.407a81.004 81.004 0 0 0-33.082-21.33l-3.858 11.363a69.004 69.004 0 0 1 28.182 18.17l8.758-8.203Zm-33.082-21.33a81 81 0 0 0-39.232-3.217l1.955 11.84a68.999 68.999 0 0 1 33.419 2.74l3.858-11.363Zm-39.232-3.217A81 81 0 0 0 47.69 36.738l7.306 9.52A69 69 0 0 1 85.76 32.923l-1.955-11.84ZM47.69 36.738a80.999 80.999 0 0 0-24.47 30.833l10.93 4.952A69 69 0 0 1 54.996 46.26l-7.306-9.52ZM23.22 67.571a81 81 0 0 0-7.047 38.727l11.975-.785a69.001 69.001 0 0 1 6.002-32.99l-10.93-4.952Zm-7.047 38.727a80.994 80.994 0 0 0 12.042 37.475l10.19-6.336a69 69 0 0 1-10.257-31.924l-11.975.785Zm12.042 37.475A80.998 80.998 0 0 0 56.5 171.148l6-10.392a69.003 69.003 0 0 1-24.095-23.319l-10.19 6.336Z" fill="#000"/><path d="M154.201 99.466a51.502 51.502 0 0 1-26.891 54.699 51.497 51.497 0 0 1-69.453-69.519 51.5 51.5 0 0 1 54.725-26.839" stroke="#000" stroke-width="12" stroke-linecap="round" stroke-linejoin="round"/><path d="M154.125 99.377a29.502 29.502 0 0 1-39.486-2.02 29.498 29.498 0 0 1-2.013-39.486" stroke="#000" stroke-width="12" stroke-linecap="round" stroke-linejoin="round"/></svg>
